src/public/images/drink.svg

<svg width="512" height="512" viewBox="0 0 512 512" fill="none" xmlns="http://www.w3.org/2000/svg">
<path d="M416.359 261.853C416.359 243.342 412.336 225.538 404.399 208.935C388.865 176.434 386.528 140.342 397.817 107.306C400.13 100.538 403.77 93.8384 399.132 87.3526C396.798 84.0882 393.007 82.1396 388.991 82.1396H326.89L331.879 57.8761C332.648 54.1388 334.809 50.9015 337.965 48.7589L389.469 13.7994C392.895 11.4738 393.788 6.81072 391.463 3.38436C389.137 -0.0419988 384.474 -0.934831 381.048 1.39073L329.542 36.3502C323.135 40.6994 318.749 47.2711 317.19 54.8557L311.58 82.1396H234.845L272.533 44.5186C274.783 42.2831 276.033 39.1806 275.967 36.0052C275.901 32.8408 274.526 29.8044 272.198 27.6778C230.539 -10.433 166.583 -9.02131 126.594 30.8922C126.591 30.8952 126.589 30.8982 126.586 30.9002C126.585 30.9012 126.585 30.9012 126.584 30.9022C126.583 30.9032 126.582 30.9042 126.581 30.9052C86.5968 70.8277 85.1891 134.67 123.398 176.276C125.53 178.581 128.559 179.941 131.707 180.006C131.788 180.008 131.868 180.008 131.949 180.008C135.024 180.008 138.019 178.777 140.209 176.6L189.201 127.7C194.48 155.112 190.9 183.842 178.668 210.212C175.774 216.449 173.396 222.968 171.596 229.589C170.51 233.585 172.87 237.705 176.866 238.791C180.863 239.875 184.982 237.517 186.068 233.521C187.646 227.714 189.733 221.995 192.272 216.522C207.913 182.806 210.791 145.557 200.551 111.029C199.545 107.635 197.176 100.62 195.981 97.1348C198.893 96.4319 305.363 97.8726 308.495 97.1348L296.846 153.789C289.037 157.491 282.108 161.003 272.701 163.225C260.928 166.007 248.661 165.961 235.203 163.088C231.795 162.361 228.213 163.094 225.373 165.103C222.534 167.109 220.648 170.237 220.198 173.685C217.99 190.563 213.17 207.101 205.872 222.842C200.184 235.124 197.299 248.25 197.299 261.857C197.299 313.481 239.706 355.48 291.831 355.48C343.957 355.48 386.364 313.481 386.364 261.857C386.364 247.854 383.324 234.4 377.331 221.867C375.497 218.033 373.787 214.094 372.25 210.16C370.744 206.301 366.393 204.394 362.538 205.903C358.681 207.41 356.774 211.758 358.282 215.616C359.953 219.893 361.81 224.174 363.803 228.339C368.823 238.834 371.367 250.111 371.367 261.857C371.367 305.211 335.688 340.483 291.832 340.483C247.977 340.483 212.297 305.212 212.297 261.857C212.297 250.442 214.714 239.437 219.48 229.148C227.035 212.852 232.151 195.754 234.701 178.287C249.214 181.049 263.145 180.893 276.146 177.823C282.622 176.296 288.071 174.26 293.088 172.073L272.029 274.49C271.195 278.547 273.807 282.51 277.863 283.345C278.373 283.449 278.881 283.5 279.382 283.5C282.866 283.5 285.989 281.057 286.718 277.51L309.997 164.294C316.108 161.7 322.713 159.513 331.289 158.36C336.084 157.718 341.004 157.472 345.942 157.623C346.281 165.274 347.122 172.971 348.445 180.534C349.158 184.614 353.041 187.347 357.123 186.629C361.202 185.916 363.932 182.03 363.218 177.951C361.883 170.318 361.085 162.54 360.845 154.834C360.643 148.303 355.556 143.107 349.014 142.745C342.386 142.38 335.751 142.632 329.295 143.496C323.332 144.298 318.192 145.521 313.557 146.981L323.806 97.1358H385.444L383.626 102.456C371.06 139.227 373.632 179.338 390.87 215.402C397.832 229.969 401.363 245.598 401.363 261.852C401.363 321.747 352.229 370.476 291.835 370.476C263.296 370.476 236.276 359.65 215.753 339.991C195.297 320.397 183.448 294.118 182.386 265.994C182.23 261.856 178.777 258.653 174.609 258.783C170.471 258.94 167.243 262.422 167.4 266.56C168.608 298.595 182.097 328.519 205.379 350.821C223.224 367.915 245.389 379.125 269.337 383.454V465.168C269.337 466.5 268.598 467.698 267.409 468.296L223.773 490.229C218.988 492.629 216.507 497.943 217.74 503.152C218.973 508.361 223.572 512 228.924 512H354.741C360.098 512 364.701 508.36 365.933 503.149C367.166 497.942 364.686 492.629 359.907 490.232L316.264 468.3C315.07 467.698 314.328 466.498 314.328 465.168V383.448C372.291 372.906 416.359 322.396 416.359 261.853V261.853ZM132.122 47.0232L179.046 93.8514L179.529 95.2821L112.396 87.7515C115.304 73.1063 121.888 59.0529 132.122 47.0232V47.0232ZM132.111 163.494C117.171 145.935 110.079 124.191 110.706 102.653L184.746 110.958L132.111 163.494ZM188.541 82.1396L142.738 36.4312C154.798 26.2151 168.885 19.6443 183.566 16.7449L190.928 82.1406H188.541V82.1396ZM213.616 82.1396H206.02L198.469 15.0622C220.045 14.4353 241.829 21.507 259.425 36.4112L213.616 82.1396ZM339.979 497.003H243.691L274.144 481.697C280.428 478.537 284.333 472.203 284.333 465.169V385.244C286.821 385.391 289.322 385.473 291.833 385.473C294.351 385.473 296.848 385.39 299.33 385.243V465.169C299.33 472.195 303.231 478.526 309.52 481.697L339.979 497.003Z" fill="#48811A"/>
</svg>

<svg xmlns="http://www.w3.org/2000/svg" width="512" height="512" fill="none" xmlns:v="https://vecta.io/nano"><path d="M416.359 261.853c0-18.511-4.023-36.315-11.96-52.918-15.534-32.501-17.871-68.593-6.582-101.629 2.313-6.768 5.953-13.468 1.315-19.953a12.49 12.49 0 0 0-10.141-5.213H326.89l4.989-24.263a14.49 14.49 0 0 1 6.086-9.117l51.504-34.959a7.5 7.5 0 0 0 1.994-10.415 7.5 7.5 0 0 0-10.415-1.994L329.542 36.35a29.4 29.4 0 0 0-12.352 18.505l-5.61 27.284h-76.735l37.688-37.621a11.71 11.71 0 0 0 3.434-8.513 11.66 11.66 0 0 0-3.769-8.327c-41.659-38.111-105.615-36.699-145.604 3.214-39.997 39.935-41.405 103.778-3.196 145.384 2.132 2.305 5.161 3.665 8.309 3.73a9.76 9.76 0 0 0 .242.002c3.075 0 6.07-1.231 8.26-3.408l48.992-48.9c5.279 27.412 1.699 56.142-10.533 82.512a122.55 122.55 0 0 0-7.072 19.377 7.5 7.5 0 0 0 5.27 9.202 7.5 7.5 0 0 0 9.202-5.27 107.49 107.49 0 0 1 6.204-16.999c15.641-33.716 18.519-70.965 8.279-105.493-1.006-3.394-3.375-10.409-4.57-13.894 2.912-.703 109.382.738 112.514 0l-11.649 56.654c-7.809 3.702-14.738 7.214-24.145 9.436-11.773 2.782-24.04 2.736-37.498-.137-3.408-.727-6.99.006-9.83 2.015a12.52 12.52 0 0 0-5.175 8.582c-2.208 16.878-7.028 33.416-14.326 49.157-5.688 12.282-8.573 25.408-8.573 39.015 0 51.624 42.407 93.623 94.532 93.623s94.533-41.999 94.533-93.623c0-14.003-3.04-27.457-9.033-39.99a173.92 173.92 0 0 1-5.081-11.707c-1.506-3.859-5.857-5.766-9.712-4.257a7.5 7.5 0 0 0-4.256 9.713c1.671 4.277 3.528 8.558 5.521 12.723 5.02 10.495 7.564 21.772 7.564 33.518 0 43.354-35.679 78.626-79.535 78.626s-79.535-35.271-79.535-78.626c0-11.415 2.417-22.42 7.183-32.709 7.555-16.296 12.671-33.394 15.221-50.861 14.513 2.762 28.444 2.606 41.445-.464 6.476-1.527 11.925-3.563 16.942-5.75L272.029 274.49a7.5 7.5 0 0 0 5.834 8.855c.51.104 1.018.155 1.519.155 3.484 0 6.607-2.443 7.336-5.99l23.279-113.216c6.111-2.594 12.716-4.781 21.292-5.934 4.795-.642 9.715-.888 14.653-.737.339 7.651 1.18 15.348 2.503 22.911.713 4.08 4.596 6.813 8.678 6.095a7.5 7.5 0 0 0 6.095-8.678 164.34 164.34 0 0 1-2.373-23.117c-.202-6.531-5.289-11.727-11.831-12.089a105.36 105.36 0 0 0-19.719.751c-5.963.802-11.103 2.025-15.738 3.485l10.249-49.845h61.638l-1.818 5.32c-12.566 36.771-9.994 76.882 7.244 112.946 6.962 14.567 10.493 30.196 10.493 46.45 0 59.895-49.134 108.624-109.528 108.624-28.539 0-55.559-10.826-76.082-30.485-20.456-19.594-32.305-45.873-33.367-73.997-.156-4.138-3.609-7.341-7.777-7.211a7.5 7.5 0 0 0-7.209 7.777c1.208 32.035 14.697 61.959 37.979 84.261 17.845 17.094 40.01 28.304 63.958 32.633v81.714a3.48 3.48 0 0 1-1.928 3.128l-43.636 21.933c-4.785 2.4-7.266 7.714-6.033 12.923A11.45 11.45 0 0 0 228.924 512h125.817c5.357 0 9.96-3.64 11.192-8.851a11.45 11.45 0 0 0-6.026-12.917L316.264 468.3c-1.194-.602-1.936-1.802-1.936-3.132v-81.72c57.963-10.542 102.031-61.052 102.031-121.595h0zM132.122 47.023l46.924 46.828.483 1.431-67.133-7.531c2.908-14.645 9.492-28.699 19.726-40.728h0zm-.011 116.471a89.61 89.61 0 0 1-21.405-60.841l74.04 8.305-52.635 52.536zm56.43-81.354l-45.803-45.708c12.06-10.216 26.147-16.787 40.828-19.686l7.362 65.396h-2.387v-.001zm25.075 0h-7.596l-7.551-67.077c21.576-.627 43.36 6.445 60.956 21.349L213.616 82.14zm126.363 414.863h-96.288l30.453-15.306c6.284-3.16 10.189-9.494 10.189-16.528v-79.925a127.15 127.15 0 0 0 7.5.229c2.518 0 5.015-.083 7.497-.23v79.926c0 7.026 3.901 13.357 10.19 16.528l30.459 15.306z" fill="#48811a"/></svg>
